src/assets/logos/logo.svg

<svg width="600" height="600" viewBox="0 0 600 600" fill="none" xmlns="http://www.w3.org/2000/svg">
    <path d="M186.239 536.868C246.485 567.773 315.788 576.144 381.66 560.472C447.531 544.801 505.64 506.118 545.514 451.393C585.388 396.669 604.405 329.503 599.139 261.998C593.873 194.492 564.669 131.088 516.791 83.2093C468.912 35.3309 405.508 6.12728 338.003 0.860982C270.497 -4.40532 203.331 14.612 148.607 54.4861C93.8823 94.3601 55.199 152.469 39.5275 218.34C23.8561 284.212 32.227 353.515 63.1318 413.761L0 600L186.239 536.868Z" fill="#00FF7F"/>
    <path fill-rule="evenodd" clip-rule="evenodd" d="M177.28 510.438C184.43 508.014 192.258 508.591 198.976 512.038C253.304 539.907 315.8 547.455 375.201 533.323C434.602 519.191 487.002 484.308 522.959 434.959C558.916 385.611 576.066 325.042 571.317 264.168C566.568 203.294 540.233 146.118 497.057 102.943C453.882 59.7673 396.706 33.4324 335.832 28.6834C274.958 23.9344 214.389 41.0837 165.041 77.0408C115.692 112.998 80.8088 165.398 66.6768 224.799C52.5447 284.201 60.0933 346.696 87.9623 401.024C91.4086 407.742 91.9855 415.57 89.5615 422.721L44.5779 555.422L177.28 510.438ZM0 600L63.1318 413.761C32.227 353.515 23.8561 284.212 39.5275 218.34C55.199 152.469 93.8823 94.3601 148.607 54.4861C203.331 14.612 270.497 -4.40532 338.003 0.860982C405.508 6.12728 468.912 35.3309 516.791 83.2093C564.669 131.088 593.873 194.492 599.139 261.998C604.405 329.503 585.388 396.669 545.514 451.393C505.64 506.118 447.531 544.801 381.66 560.472C315.788 576.144 246.485 567.773 186.239 536.868L0 600Z" fill="#13392c"/>
    <path d="M432.558 225.59H398.514C396.501 215.656 392.978 206.928 387.944 199.408C383.002 191.887 376.962 185.573 369.824 180.467C362.777 175.267 354.953 171.368 346.35 168.768C337.748 166.169 328.779 164.869 319.444 164.869C302.422 164.869 287.002 169.232 273.183 177.96C259.456 186.688 248.52 199.547 240.375 216.538C232.321 233.529 228.295 254.373 228.295 279.07C228.295 303.767 232.321 324.611 240.375 341.602C248.52 358.593 259.456 371.452 273.183 380.179C287.002 388.907 302.422 393.271 319.444 393.271C328.779 393.271 337.748 391.971 346.35 389.371C354.953 386.772 362.777 382.918 369.824 377.812C376.962 372.613 383.002 366.253 387.944 358.732C392.978 351.119 396.501 342.391 398.514 332.549H432.558C429.996 347.126 425.328 360.171 418.556 371.684C411.784 383.197 403.365 392.992 393.298 401.07C383.231 409.055 371.929 415.136 359.391 419.314C346.945 423.492 333.629 425.581 319.444 425.581C295.467 425.581 274.144 419.639 255.475 407.755C236.806 395.871 222.117 378.972 211.41 357.061C200.703 335.149 195.349 309.152 195.349 279.07C195.349 248.988 200.703 222.991 211.41 201.079C222.117 179.167 236.806 162.269 255.475 150.385C274.144 138.5 295.467 132.558 319.444 132.558C333.629 132.558 346.945 134.647 359.391 138.825C371.929 143.003 383.231 149.131 393.298 157.209C403.365 165.194 411.784 174.943 418.556 186.455C425.328 197.876 429.996 210.92 432.558 225.59Z" fill="#13392c"/>
</svg>

<svg xmlns="http://www.w3.org/2000/svg" viewBox="0 0 600 600" fill="none"><path d="M186.239 536.868a284.09 284.09 0 0 0 359.275-85.475c39.874-54.724 58.891-121.89 53.625-189.395s-34.47-130.91-82.348-178.789S405.508 6.127 338.003.861a284.09 284.09 0 0 0-189.396 53.625C93.882 94.36 55.199 152.469 39.528 218.34s-7.301 135.175 23.604 195.421L0 600l186.239-63.132z" fill="#00c781"/><g fill="#fff"><path fill-rule="evenodd" d="M177.28 510.438a27.9 27.9 0 0 1 21.696 1.6 256.19 256.19 0 0 0 176.225 21.285c59.401-14.132 111.801-49.015 147.758-98.364s53.107-109.917 48.358-170.791a256.18 256.18 0 0 0-74.26-161.225c-43.175-43.176-100.351-69.511-161.225-74.26s-121.443 12.4-170.791 48.357-84.232 88.357-98.364 147.758a256.19 256.19 0 0 0 21.286 176.225c3.446 6.718 4.023 14.546 1.599 21.697L44.578 555.422l132.702-44.984zM0 600l63.132-186.239C32.227 353.515 23.856 284.212 39.528 218.34S93.882 94.36 148.607 54.486A284.09 284.09 0 0 1 338.003.861c67.505 5.266 130.909 34.47 178.788 82.348s77.082 111.283 82.348 178.789-13.751 134.671-53.625 189.395a284.09 284.09 0 0 1-359.275 85.475L0 600z"/><path d="M432.558 225.59h-34.044c-2.013-9.934-5.536-18.662-10.57-26.182-4.942-7.521-10.982-13.835-18.12-18.941-7.047-5.2-14.871-9.099-23.474-11.699s-17.571-3.899-26.906-3.899c-17.022 0-32.442 4.363-46.261 13.091-13.727 8.728-24.663 21.587-32.808 38.578-8.054 16.991-12.08 37.835-12.08 62.532s4.026 45.541 12.08 62.532c8.145 16.991 19.081 29.85 32.808 38.577 13.819 8.728 29.239 13.092 46.261 13.092 9.335 0 18.304-1.3 26.906-3.9s16.427-6.453 23.474-11.559c7.138-5.199 13.178-11.559 18.12-19.08 5.034-7.613 8.557-16.341 10.57-26.183h34.044c-2.562 14.577-7.23 27.622-14.002 39.135s-15.191 21.308-25.258 29.386c-10.067 7.985-21.369 14.066-33.907 18.244-12.446 4.178-25.762 6.267-39.947 6.267-23.977 0-45.3-5.942-63.969-17.826s-33.358-28.783-44.065-50.694-16.061-47.909-16.061-77.991 5.354-56.079 16.061-77.991 25.396-38.81 44.065-50.694 39.992-17.827 63.969-17.827c14.185 0 27.501 2.089 39.947 6.267 12.538 4.178 23.84 10.306 33.907 18.384 10.067 7.985 18.486 17.734 25.258 29.246 6.772 11.421 11.44 24.465 14.002 39.135z"/></g></svg>
